app/dist/common/images/superior-of-companies.svg

<svg height="18" viewBox="0 0 18 18" width="18" xmlns="http://www.w3.org/2000/svg"><path d="m0 0h18v18h-18z" fill="#f0f3fa"/><path d="m9.04 3 1.46 1.33-5 4.67 3.57 3.33 2.5-2.33 1.43 1.33-3.96 3.67-5.66-5.16c-.5-.47-.5-1.21 0-1.68z" fill="#042c44"/><path d="m13.99 10 .67-.67c.2-.2.32-.43.34-.66.02-.3-.1-.58-.37-.84l-2.97-2.83-3.66 3.67 1.33 1.33 2.33-2.17 2.34 2.17z" fill="#005e90"/></svg>

<!-- by TradingView --><svg width="18" height="18" viewBox="0 0 18 18" xmlns="http://www.w3.org/2000/svg"><path fill="#F0F3FA" d="M0 0h18v18H0z"/><path d="m9.04 3 1.46 1.33L5.5 9l3.57 3.33 2.5-2.33L13 11.33 9.04 15 3.38 9.84c-.5-.47-.5-1.21 0-1.68L9.04 3Z" fill="#042C44"/><path d="m13.99 10 .67-.67c.2-.2.32-.43.34-.66.02-.3-.1-.58-.37-.84L11.66 5 8 8.67 9.33 10l2.33-2.17L14 10Z" fill="#005E90"/></svg>
